front/public/static/landing/logos/gray/Orus-1.svg

<svg fill="none" height="240" viewBox="0 0 600 240" width="600" xmlns="http://www.w3.org/2000/svg" xmlns:xlink="http://www.w3.org/1999/xlink"><mask id="a" height="88" maskUnits="userSpaceOnUse" width="382" x="109" y="76"><path d="m491 76.4386h-382v87.1224h382z" fill="#fff"/></mask><g mask="url(#a)"><path clip-rule="evenodd" d="m367.007 110.708c4.752-.664 8.421.595 9.393.941 5.673 2.039 11.912 7.376 9.51 21.241-.865 5.667-3.08 9.293-4.661 11.647-7.56 11.241-20.454 17.644-35.98 18.859-26.596 2.081-49.75-15.661-51.717-39.629-1.969-23.9674 17.996-45.0826 44.592-47.1638 11.897-.9316 23.074 2.1419 32.003 7.9305.617.4021.781 1.2338.375 1.842l-6.512 9.8117c-.407.6145-1.228.7559-1.847.3388-6.157-4.1618-14.086-6.3881-22.853-5.7039-18.991 1.4858-32.036 15.7437-30.703 31.9697 1.332 16.224 16.536 28.272 35.527 26.785 11.174-.874 20.185-6.235 25.524-13.752 2.59-4.186 2.65-6.315 2.329-8.897-.198-1.584-1.803-2.064-3.395-1.792l-16.644 2.358c-.732.105-1.411-.393-1.517-1.107l-1.745-11.765c-.107-.714.401-1.377 1.133-1.481zm42.463 9.494c0 16.276 14.171 29.471 33.224 29.471 19.049 0 33.22-13.195 33.22-29.471s-14.171-29.4718-33.22-29.4718c-19.053 0-33.224 13.1958-33.224 29.4718zm-8.82-21.598c8.294-13.2088 23.999-22.1385 42.044-22.1385 26.679 0 48.306 19.4907 48.306 43.5365 0 24.043-21.627 43.534-48.306 43.534-20.119 0-37.356-11.089-44.621-26.852-.063-.137-.117-.278-.171-.419-.05-.125-.097-.25-.15-.374-2.148-4.926-3.368-10.276-3.368-15.889 0-5.615 1.22-10.963 3.368-15.891.827-1.905 1.789-3.745 2.898-5.507zm-168.901 30.478c5.507 2.748 12.039 4.134 19.144 3.578 4.997-.391 9.489-1.766 13.486-3.745l-16.361-38.3296zm16.276-52.5981c2.483 0 4.723.7037 6.434 1.8269 2.575 1.3487 5.082 4.0378 7.661 9.5594l32.025 70.9028c.392.863-.258 1.836-1.226 1.836h-14.144c-.541 0-1.03-.32-1.237-.806l-7.535-17.683c-5.397 2.346-11.427 3.846-17.975 4.359-9.234.723-18.023-.988-25.675-4.488l-7.879 17.827c-.211.48-.694.791-1.228.791h-14.165c-.965 0-1.613-.969-1.226-1.834l31.84-70.9266c2.92-6.249 5.783-8.9294 8.763-10.059 1.575-.8169 3.489-1.3055 5.567-1.3055zm-30.635 2.5973-8.453-1.7636c-1.148-.2694-2.307-.5103-3.48-.7255-.701-.126-1.399.3107-1.577.9838l-.379 1.9985c-.2 1.2358-.447 2.6653-.72 4.0338-3.939 18.6108-19.291 32.5038-39.059 32.5038-19.569 0-34.826-13.609-38.951-31.9348l-.018.0261c-.211-1.0361-.785-4.5052-1.099-6.4384l-.02-.0955c-.167-.6299-.79-1.034-1.442-.9818l-12.104 2.5263c-.697.1434-1.175.8058-1.075 1.4945.632 4.3594 1.68 8.5732 3.155 12.5677.061.1639.116.3315.171.499.063.1923.126.385.199.572 7.438 19.0239 24.001 32.9339 43.875 35.7269v29.316c0 .721.601 1.307 1.339 1.307h12.421c.741 0 1.341-.586 1.341-1.307v-29.367c24.184-3.63 43.335-23.812 46.955-49.4473.096-.6887-.382-1.3488-1.079-1.4945z" fill="#364153" fill-rule="evenodd"/></g></svg>

<svg width="600" height="240" viewBox="0 0 600 240" fill="none" xmlns="http://www.w3.org/2000/svg">
<mask id="mask0_1904_3581" style="mask-type:luminance" maskUnits="userSpaceOnUse" x="109" y="76" width="382" height="88">
<path d="M491 76.4386H109V163.561H491V76.4386Z" fill="white"/>
</mask>
<g mask="url(#mask0_1904_3581)">
<path fill-rule="evenodd" clip-rule="evenodd" d="M367.007 110.708C371.759 110.044 375.428 111.303 376.4 111.649C382.073 113.688 388.312 119.025 385.91 132.89C385.045 138.557 382.83 142.183 381.249 144.537C373.689 155.778 360.795 162.181 345.269 163.396C318.673 165.477 295.519 147.735 293.552 123.767C291.583 99.7996 311.548 78.6844 338.144 76.6032C350.041 75.6716 361.218 78.7451 370.147 84.5337C370.764 84.9358 370.928 85.7675 370.522 86.3757L364.01 96.1874C363.603 96.8019 362.782 96.9433 362.163 96.5262C356.006 92.3644 348.077 90.1381 339.31 90.8223C320.319 92.3081 307.274 106.566 308.607 122.792C309.939 139.016 325.143 151.064 344.134 149.577C355.308 148.703 364.319 143.342 369.658 135.825C372.248 131.639 372.308 129.51 371.987 126.928C371.789 125.344 370.184 124.864 368.592 125.136L351.948 127.494C351.216 127.599 350.537 127.101 350.431 126.387L348.686 114.622C348.579 113.908 349.087 113.245 349.819 113.141L367.007 110.708ZM409.47 120.202C409.47 136.478 423.641 149.673 442.694 149.673C461.743 149.673 475.914 136.478 475.914 120.202C475.914 103.926 461.743 90.7302 442.694 90.7302C423.641 90.7302 409.47 103.926 409.47 120.202ZM400.65 98.604C408.944 85.3952 424.649 76.4655 442.694 76.4655C469.373 76.4655 491 95.9562 491 120.002C491 144.045 469.373 163.536 442.694 163.536C422.575 163.536 405.338 152.447 398.073 136.684C398.01 136.547 397.956 136.406 397.902 136.265C397.852 136.14 397.805 136.015 397.752 135.891C395.604 130.965 394.384 125.615 394.384 120.002C394.384 114.387 395.604 109.039 397.752 104.111C398.579 102.206 399.541 100.366 400.65 98.604ZM231.749 129.082C237.256 131.83 243.788 133.216 250.893 132.66C255.89 132.269 260.382 130.894 264.379 128.915L248.018 90.5854L231.749 129.082ZM248.025 76.4839C250.508 76.4839 252.748 77.1876 254.459 78.3108C257.034 79.6595 259.541 82.3486 262.12 87.8702L294.145 158.773C294.537 159.636 293.887 160.609 292.919 160.609H278.775C278.234 160.609 277.745 160.289 277.538 159.803L270.003 142.12C264.606 144.466 258.576 145.966 252.028 146.479C242.794 147.202 234.005 145.491 226.353 141.991L218.474 159.818C218.263 160.298 217.78 160.609 217.246 160.609H203.081C202.116 160.609 201.468 159.64 201.855 158.775L233.695 87.8484C236.615 81.5994 239.478 78.919 242.458 77.7894C244.033 76.9725 245.947 76.4839 248.025 76.4839ZM217.39 79.0812L208.937 77.3176C207.789 77.0482 206.63 76.8073 205.457 76.5921C204.756 76.4661 204.058 76.9028 203.88 77.5759L203.501 79.5744C203.301 80.8102 203.054 82.2397 202.781 83.6082C198.842 102.219 183.49 116.112 163.722 116.112C144.153 116.112 128.896 102.503 124.771 84.1772L124.753 84.2033C124.542 83.1672 123.968 79.6981 123.654 77.7649L123.634 77.6694C123.467 77.0395 122.844 76.6354 122.192 76.6876L110.088 79.2139C109.391 79.3573 108.913 80.0197 109.013 80.7084C109.645 85.0678 110.693 89.2816 112.168 93.2761C112.229 93.44 112.284 93.6076 112.339 93.7751C112.402 93.9674 112.465 94.1601 112.538 94.3471C119.976 113.371 136.539 127.281 156.413 130.074V159.39C156.413 160.111 157.014 160.697 157.752 160.697H170.173C170.914 160.697 171.514 160.111 171.514 159.39V130.023C195.698 126.393 214.849 106.211 218.469 80.5757C218.565 79.887 218.087 79.2269 217.39 79.0812Z" fill="#364153"/>
</g>
</svg>
